X:1
T:Sweet Is the Work
T:Sweet Is the Work
T:John Jasper McClellan, 1892
T:Public Domain Courtesy of the Cyber Hymnal™
C:John Jasper McClellan, 1892
Z:Public Domain
Z:Courtesy of the Cyber Hymnal™
%%score ( 1 2 ) ( 3 4 )
L:1/8
M:3/4
K:F
V:1 treble 
V:2 treble 
V:3 bass 
V:4 bass 
V:1
 [A,C]2 [B,D]2 [B,E]2 | [A,F]4 [CG]2 | [CA]4 [F=B]2 | [Ec]6 | C2 [B,D]2 [CE]2 | [CF]4 [CG]2 | %6
 [CA]4 [CF]2 | [CG]6 | [CG]2 [CG]2 [CG]2 | [CA]4 [FA]2 | B2 c2 [Fd]2 | [Fc]6 | [DF]2 [CF]2 [EB]2 | %13
 [FA]4 [DF]2 | [DG]2 [CF]2 [CE]2 | [CF]6 |] %16
V:2
 x6 | x6 | x6 | x6 | x6 | x6 | x6 | x6 | x6 | x6 | F4 x2 | x6 | x6 | x6 | x6 | x6 |] %16
V:3
 [F,,F,]2 [B,,F,]2 [G,,C,]2 | [F,,C,]4 [C,E,]2 | F,4 [D,G,]2 | [C,G,]6 | %4
 [A,,F,]2 [B,,F,]2 [B,,G,]2 | [A,,F,]4 [C,E,]2 | F,4 [G,,F,]2 | [C,E,]6 | [C,E,]2 [C,E,]2 [C,E,]2 | %9
 F,4 [_E,F,]2 | [D,F,]2 [C,A,]2 [B,,B,]2 | [A,,C]6 | [B,,B,]2 [A,,C]2 [G,,C]2 | [F,,C]4 [D,A,]2 | %14
 [B,,B,]2 [C,A,]2 (G,B,) | [F,,A,]6 |] %16
V:4
 x6 | x6 | x6 | x6 | x6 | x6 | x6 | x6 | x6 | x6 | x6 | x6 | x6 | x6 | x4 C,2 | x6 |] %16

